X:1
T:Polly Wolly Doodle
M:4/4
L:1/8
K:E
 E3/2 F/2| G2 G2 E2 EE| G2 G2 E2 E2| GG GG AA GG| F6|D-E| F2 F2 D2 D2|\
 F2 F2 D2 F2| BB BB AA FF| E6| EF| G6 EF| G6 EF| G2 G2 A2 G2| F6| DE|\
 FF FF DD DD| FF FF DD FF| BB BB AA FF| E6||
